Numix/16/status/indicator-keyboard-Lv-1.svg

<?xml version="1.0" encoding="UTF-8" standalone="no"?>
<svg
   xmlns:dc="http://purl.org/dc/elements/1.1/"
   xmlns:cc="http://creativecommons.org/ns#"
   xmlns:rdf="http://www.w3.org/1999/02/22-rdf-syntax-ns#"
   xmlns:svg="http://www.w3.org/2000/svg"
   xmlns="http://www.w3.org/2000/svg"
   xmlns:sodipodi="http://sodipodi.sourceforge.net/DTD/sodipodi-0.dtd"
   xmlns:inkscape="http://www.inkscape.org/namespaces/inkscape"
   viewBox="0 0 16 16"
   id="svg2"
   version="1.1"
   inkscape:version="0.91 r13725"
   sodipodi:docname="indicator-keyboard-Lv-1.svg">
  <metadata
     id="metadata14">
    <rdf:RDF>
      <cc:Work
         rdf:about="">
        <dc:format>image/svg+xml</dc:format>
        <dc:type
           rdf:resource="http://purl.org/dc/dcmitype/StillImage" />
      </cc:Work>
    </rdf:RDF>
  </metadata>
  <defs
     id="defs12" />
  <sodipodi:namedview
     pagecolor="#ffffff"
     bordercolor="#666666"
     borderopacity="1"
     objecttolerance="10"
     gridtolerance="10"
     guidetolerance="10"
     inkscape:pageopacity="0"
     inkscape:pageshadow="2"
     inkscape:window-width="640"
     inkscape:window-height="480"
     id="namedview10"
     showgrid="false"
     inkscape:zoom="14.75"
     inkscape:cx="8"
     inkscape:cy="8"
     inkscape:window-x="65"
     inkscape:window-y="24"
     inkscape:window-maximized="0"
     inkscape:current-layer="svg2" />
  <path
     style="fill:#ececec;fill-opacity:1"
     d="M 1.5996094 0 C 0.71320937 2.9605947e-16 0 0.71320937 0 1.5996094 L 0 14.400391 C 2.9605947e-16 15.286791 0.71320937 16 1.5996094 16 L 14.400391 16 C 15.286791 16 16 15.286791 16 14.400391 L 16 1.5996094 C 16 0.71320937 15.286791 0 14.400391 0 L 1.5996094 0 z M 3.0839844 4.859375 L 3.6953125 4.859375 L 3.6953125 10.564453 L 6.6289062 10.564453 L 6.6289062 11.095703 L 3.0839844 11.095703 L 3.0839844 4.859375 z M 6.7070312 6.4433594 L 7.328125 6.4433594 C 7.400125 6.7613594 7.4878437 7.10275 7.5898438 7.46875 C 7.6978437 7.82875 7.8116406 8.1888281 7.9316406 8.5488281 C 8.0576406 8.9028281 8.1863594 9.2479844 8.3183594 9.5839844 C 8.4503594 9.9139846 8.5790781 10.208797 8.7050781 10.466797 C 8.8310781 10.208797 8.9597969 9.9139846 9.0917969 9.5839844 C 9.2237969 9.2479844 9.3507031 8.9028281 9.4707031 8.5488281 C 9.5967031 8.1888281 9.7105 7.82875 9.8125 7.46875 C 9.9205 7.10275 10.010031 6.7613594 10.082031 6.4433594 L 10.667969 6.4433594 C 10.559969 6.8693594 10.438641 7.289125 10.306641 7.703125 C 10.174641 8.117125 10.034766 8.5219688 9.8847656 8.9179688 C 9.7407656 9.3139687 9.5877813 9.6945467 9.4257812 10.060547 C 9.2697813 10.426547 9.1167969 10.771703 8.9667969 11.095703 L 8.4082031 11.095703 C 8.2522031 10.771703 8.0954531 10.426547 7.9394531 10.060547 C 7.7834531 9.6945467 7.6304687 9.3139687 7.4804688 8.9179688 C 7.3364687 8.5219688 7.1984062 8.117125 7.0664062 7.703125 C 6.9344063 7.289125 6.8150312 6.8693594 6.7070312 6.4433594 z M 12.648438 8.8417969 L 12.916016 8.8417969 L 12.916016 12.896484 L 12.537109 12.896484 L 12.537109 9.421875 C 12.494209 9.468675 12.437387 9.5157063 12.367188 9.5664062 C 12.300887 9.6171063 12.224472 9.66805 12.138672 9.71875 C 12.052872 9.76555 11.962741 9.812575 11.869141 9.859375 C 11.775541 9.902275 11.681491 9.9375437 11.587891 9.9648438 L 11.476562 9.671875 C 11.710563 9.5899751 11.920216 9.4880813 12.103516 9.3632812 C 12.286816 9.2345813 12.469038 9.0601969 12.648438 8.8417969 z "
     id="path4" />
</svg>

<svg xmlns="http://www.w3.org/2000/svg" viewBox="0 0 16 16">
 <path d="m 1.6 0 c -0.886 0 -1.6 0.713 -1.6 1.6 l 0 12.801 c 0 0.886 0.713 1.6 1.6 1.6 l 12.801 0 c 0.886 0 1.6 -0.713 1.6 -1.6 l 0 -12.801 c 0 -0.886 -0.713 -1.6 -1.6 -1.6 l -12.801 0 z m 1.484 4.859 l 0.611 0 l 0 5.705 l 2.934 0 l 0 0.531 l -3.545 0 l 0 -6.236 z m 3.623 1.584 l 0.621 0 c 0.072 0.318 0.16 0.659 0.262 1.025 c 0.108 0.36 0.222 0.72 0.342 1.08 c 0.126 0.354 0.255 0.699 0.387 1.035 c 0.132 0.33 0.261 0.625 0.387 0.883 c 0.126 -0.258 0.255 -0.553 0.387 -0.883 c 0.132 -0.336 0.259 -0.681 0.379 -1.035 c 0.126 -0.36 0.24 -0.72 0.342 -1.08 c 0.108 -0.366 0.198 -0.707 0.27 -1.025 l 0.586 0 c -0.108 0.426 -0.229 0.846 -0.361 1.26 c -0.132 0.414 -0.272 0.819 -0.422 1.215 c -0.144 0.396 -0.297 0.777 -0.459 1.143 c -0.156 0.366 -0.309 0.711 -0.459 1.035 l -0.559 0 c -0.156 -0.324 -0.313 -0.669 -0.469 -1.035 c -0.156 -0.366 -0.309 -0.747 -0.459 -1.143 c -0.144 -0.396 -0.282 -0.801 -0.414 -1.215 c -0.132 -0.414 -0.251 -0.834 -0.359 -1.26 z m 5.941 2.398 l 0.268 0 l 0 4.055 l -0.379 0 l 0 -3.475 c -0.043 0.047 -0.1 0.094 -0.17 0.145 c -0.066 0.051 -0.143 0.102 -0.229 0.152 c -0.086 0.047 -0.176 0.094 -0.27 0.141 c -0.094 0.043 -0.188 0.078 -0.281 0.105 l -0.111 -0.293 c 0.234 -0.082 0.444 -0.184 0.627 -0.309 c 0.183 -0.129 0.366 -0.303 0.545 -0.521 z" style="fill:#ececec;fill-opacity:1"/>
</svg>
